packages/icons/web/gift_large.svg

<svg width="24" height="24" viewBox="0 0 24 24" fill="none" xmlns="http://www.w3.org/2000/svg">
<path fill-rule="evenodd" clip-rule="evenodd" d="M3.75 7.19995H20.25C20.6642 7.19995 21 7.57305 21 8.03328V11.3666C21 11.8269 20.6642 12.2 20.25 12.2H19.5V19.7C19.5 20.5284 18.8285 21.2 18 21.2H6.00002C5.1716 21.2 4.50002 20.5284 4.50002 19.7V12.2H3.75C3.33579 12.2 3 11.8269 3 11.3666V8.03328C3 7.57305 3.33579 7.19995 3.75 7.19995ZM18 12.2H6.00001V19.7H18V12.2ZM4.50001 10.7V8.44996H19.5V10.7H4.50001Z" fill="#212933"/>
<path fill-rule="evenodd" clip-rule="evenodd" d="M5.77381 8.0002C4.01893 6.15824 5.4231 3 8.2352 3C9.73944 3 10.9885 3.96927 12 5.80952C13.0115 3.96927 14.2606 3 15.7648 3C18.5769 3 19.9811 6.15824 18.2262 8.0002C18.0601 8.17456 17.8642 8.3242 17.6382 8.44995H6.3618C6.13577 8.3242 5.93993 8.17456 5.77381 8.0002ZM6.85917 6.86098C6.10231 6.06656 6.7494 4.61113 8.23518 4.61113C9.22299 4.61113 10.1405 5.42787 10.9643 7.19227C8.71232 7.49848 7.3207 7.34541 6.85917 6.86098ZM15.7648 4.61113C17.2506 4.61113 17.8977 6.06656 17.1408 6.86098C16.6793 7.34541 15.2876 7.49848 13.0357 7.19227C13.8594 5.42787 14.777 4.61113 15.7648 4.61113Z" fill="#212933"/>
<path d="M11 7.19995H13V21.2H11V7.19995Z" fill="#212933"/>
</svg>

<svg width="24" height="24" fill="none" xmlns="http://www.w3.org/2000/svg">
    <path fill-rule="evenodd" clip-rule="evenodd" d="M3.75 7.2h16.5c.414 0 .75.373.75.833v3.334c0 .46-.336.833-.75.833h-.75v7.5a1.5 1.5 0 01-1.5 1.5H6a1.5 1.5 0 01-1.5-1.5v-7.5h-.75c-.414 0-.75-.373-.75-.833V8.033c0-.46.336-.833.75-.833zm14.25 5H6v7.5h12v-7.5zM4.5 10.7V8.45h15v2.25h-15z" fill="currentColor"/>
    <path fill-rule="evenodd" clip-rule="evenodd" d="M5.774 8c-1.755-1.842-.35-5 2.461-5C9.74 3 10.99 3.97 12 5.81 13.011 3.97 14.26 3 15.765 3c2.812 0 4.216 3.158 2.461 5a2.449 2.449 0 01-.588.45H6.362A2.449 2.449 0 015.774 8zm1.085-1.139c-.757-.794-.11-2.25 1.376-2.25.988 0 1.905.817 2.73 2.581-2.253.306-3.644.153-4.106-.331zm8.906-2.25c1.486 0 2.133 1.456 1.376 2.25-.462.484-1.853.637-4.105.331.823-1.764 1.741-2.58 2.729-2.58z" fill="currentColor"/>
    <path d="M11 7.2h2v14h-2v-14z" fill="currentColor"/>
</svg>
